;FLAVOR:UltiGCode
;TIME:5579
;MATERIAL:7999
;MATERIAL2:0
;NOZZLE_DIAMETER:0.4

;Generated with Cura_SteamEngine 2.1.3
;LAYER_COUNT:363
;LAYER:0
M107
G10
G0 F9000.000000 X65.698 Y95.840 Z0.270
;TYPE:SKIRT
G11
G1 F1800.000 X66.390 Y95.451 E0.07502
G1 X67.117 Y95.133 E0.15000
G1 X67.873 Y94.890 E0.22505
G1 X68.649 Y94.725 E0.30002
G1 X69.437 Y94.639 E0.37493
G1 X69.900 Y94.625 E0.41870
G1 X153.100 Y94.625 E8.28110
G1 X153.892 Y94.665 E8.35604
G1 X154.677 Y94.784 E8.43107
G1 X155.445 Y94.982 E8.50602
G1 X156.190 Y95.257 E8.58106
G1 X156.903 Y95.604 E8.65600
G1 X157.578 Y96.022 E8.73103
G1 X158.207 Y96.505 E8.80597
G1 X158.784 Y97.050 E8.88097
G1 X159.304 Y97.649 E8.95593
G1 X159.760 Y98.298 E9.03089
G1 X160.149 Y98.990 E9.10591
G1 X160.467 Y99.717 E9.18089
G1 X160.710 Y100.473 E9.25593
G1 X160.875 Y101.249 E9.33091
G1 X160.961 Y102.037 E9.40581
G1 X160.975 Y102.500 E9.44959
G1 X160.975 Y107.496 E9.92171
G1 X160.935 Y108.288 E9.99665
G1 X160.816 Y109.073 E10.07168
G1 X160.618 Y109.841 E10.14663
G1 X160.343 Y110.586 E10.22167
G1 X159.996 Y111.299 E10.29661
G1 X159.874 Y111.496 E10.31851
G1 X160.149 Y111.985 E10.37152
G1 X160.467 Y112.712 E10.44651
G1 X160.710 Y113.468 E10.52155
G1 X160.875 Y114.244 E10.59652
G1 X160.961 Y115.032 E10.67143
G1 X160.975 Y115.495 E10.71520
G1 X160.975 Y120.500 E11.18818
G1 X160.935 Y121.292 E11.26312
G1 X160.816 Y122.077 E11.33815
G1 X160.774 Y122.241 E11.35414
G1 X160.906 Y122.613 E11.39145
G1 X161.096 Y123.383 E11.46639
G1 X161.170 Y123.841 E11.51024
G1 X161.307 Y124.876 E11.60890
G1 X161.371 Y125.666 E11.68380
G1 X161.356 Y126.460 E11.75884
G1 X161.307 Y126.941 E11.80453
G1 X161.170 Y127.977 E11.90329
G1 X161.027 Y128.758 E11.97832
G1 X160.805 Y129.520 E12.05332
G1 X160.639 Y129.957 E12.09750
G1 X160.379 Y130.584 E12.16164
G1 X160.639 Y131.212 E12.22587
G1 X160.905 Y131.960 E12.30089
G1 X161.095 Y132.730 E12.37584
G1 X161.171 Y133.199 E12.42074
G1 X161.307 Y134.235 E12.51948
G1 X161.371 Y135.026 E12.59447
G1 X161.354 Y135.819 E12.66943
G1 X161.307 Y136.286 E12.71378
G1 X161.171 Y137.321 E12.81243
G1 X161.028 Y138.101 E12.88737
G1 X160.807 Y138.864 E12.96244
G1 X160.640 Y139.304 E13.00691
G1 X160.241 Y140.269 E13.10559
G1 X159.902 Y140.986 E13.18054
G1 X159.492 Y141.665 E13.25550
G1 X159.209 Y142.057 E13.30119
G1 X158.573 Y142.885 E13.39985
G1 X158.059 Y143.489 E13.47480
G1 X157.486 Y144.038 E13.54979
G1 X157.121 Y144.336 E13.59432
G1 X156.292 Y144.972 E13.69306
G1 X155.639 Y145.423 E13.76805
G1 X154.944 Y145.805 E13.84300
G1 X154.511 Y146.000 E13.88787
G1 X153.547 Y146.399 E13.98647
G1 X152.799 Y146.665 E14.06149
G1 X152.029 Y146.855 E14.13644
G1 X151.567 Y146.930 E14.18067
G1 X150.531 Y147.067 E14.27942
G1 X149.499 Y147.135 E14.37716
G1 X73.501 Y147.135 E21.55897
G1 X72.469 Y147.067 E21.65670
G1 X71.433 Y146.930 E21.75546
G1 X70.652 Y146.787 E21.83049
G1 X69.890 Y146.565 E21.90549
G1 X69.453 Y146.399 E21.94967
G1 X68.489 Y146.000 E22.04826
G1 X67.772 Y145.660 E22.12325
G1 X67.093 Y145.250 E22.19821
G1 X66.708 Y144.972 E22.24308
G1 X65.879 Y144.336 E22.34182
G1 X65.274 Y143.822 E22.41684
G1 X64.725 Y143.250 E22.49176
G1 X64.427 Y142.885 E22.53629
G1 X63.791 Y142.057 E22.63496
G1 X63.340 Y141.404 E22.70995
G1 X62.957 Y140.709 E22.78494
G1 X62.759 Y140.269 E22.83054
G1 X62.360 Y139.304 E22.92922
G1 X62.094 Y138.556 E23.00424
G1 X61.904 Y137.786 E23.07919
G1 X61.829 Y137.321 E23.12370
G1 X61.693 Y136.286 E23.22235
G1 X61.630 Y135.495 E23.29733
G1 X61.646 Y134.702 E23.37229
G1 X61.693 Y134.235 E23.41664
G1 X61.829 Y133.199 E23.51538
G1 X61.972 Y132.418 E23.59042
G1 X62.192 Y131.656 E23.66537
G1 X62.361 Y131.212 E23.71026
G1 X62.621 Y130.585 E23.77440
G1 X62.361 Y129.957 E23.83863
G1 X62.095 Y129.209 E23.91366
G1 X61.905 Y128.439 E23.98860
G1 X61.830 Y127.977 E24.03284
G1 X61.693 Y126.941 E24.13159
G1 X61.629 Y126.151 E24.20649
G1 X61.644 Y125.357 E24.28154
G1 X61.693 Y124.876 E24.32723
G1 X61.830 Y123.841 E24.42589
G1 X61.974 Y123.060 E24.50093
G1 X62.195 Y122.298 E24.57591
G1 X62.225 Y122.220 E24.58381
G1 X62.125 Y121.751 E24.62913
G1 X62.039 Y120.963 E24.70403
G1 X62.025 Y120.500 E24.74781
G1 X62.025 Y115.499 E25.22040
G1 X62.065 Y114.707 E25.29534
G1 X62.184 Y113.922 E25.37037
G1 X62.382 Y113.154 E25.44532
G1 X62.657 Y112.409 E25.52037
G1 X63.004 Y111.696 E25.59530
G1 X63.126 Y111.499 E25.61720
G1 X62.851 Y111.010 E25.67021
G1 X62.533 Y110.283 E25.74520
G1 X62.290 Y109.527 E25.82024
G1 X62.125 Y108.751 E25.89521
G1 X62.039 Y107.963 E25.97012
G1 X62.025 Y107.500 E26.01390
G1 X62.025 Y102.500 E26.48640
G1 X62.065 Y101.708 E26.56133
G1 X62.184 Y100.923 E26.63636
G1 X62.382 Y100.155 E26.71131
G1 X62.657 Y99.410 E26.78636
G1 X63.004 Y98.697 E26.86129
G1 X63.422 Y98.022 E26.93632
G1 X63.905 Y97.393 E27.01126
G1 X64.450 Y96.816 E27.08627
G1 X65.049 Y96.296 E27.16123
G1 X65.698 Y95.840 E27.23618
G0 F9000.00000 X66.034 Y96.044
G1 F1800.000 X66.719 Y95.681 E27.30944
G1 X67.438 Y95.389 E27.38278
G1 X68.183 Y95.174 E27.45605
G1 X68.946 Y95.036 E27.52933
G1 X69.900 Y94.975 E27.61967
G1 X153.100 Y94.975 E35.48207
G1 X153.875 Y95.015 E35.55540
G1 X154.641 Y95.134 E35.62866
G1 X155.391 Y95.332 E35.70196
G1 X156.117 Y95.606 E35.77529
G1 X156.810 Y95.953 E35.84853
G1 X157.464 Y96.370 E35.92183
G1 X158.072 Y96.852 E35.99515
G1 X158.627 Y97.394 E36.06846
G1 X159.124 Y97.990 E36.14179
G1 X159.556 Y98.634 E36.21507
G1 X159.919 Y99.319 E36.28833
G1 X160.211 Y100.038 E36.36167
G1 X160.426 Y100.783 E36.43494
G1 X160.564 Y101.546 E36.50822
G1 X160.625 Y102.500 E36.59855
G1 X160.625 Y107.496 E37.07068
G1 X160.585 Y108.271 E37.14401
G1 X160.466 Y109.037 E37.21727
G1 X160.268 Y109.787 E37.29057
G1 X159.994 Y110.513 E37.36390
G1 X159.647 Y111.206 E37.43714
G1 X159.464 Y111.492 E37.46923
G1 X159.556 Y111.629 E37.48482
G1 X159.919 Y112.314 E37.55808
G1 X160.211 Y113.033 E37.63141
G1 X160.426 Y113.778 E37.70469
G1 X160.564 Y114.541 E37.77796
G1 X160.625 Y115.495 E37.86830
G1 X160.625 Y120.500 E38.34127
G1 X160.585 Y121.275 E38.41461
G1 X160.466 Y122.041 E38.48786
G1 X160.409 Y122.258 E38.50907
G1 X160.576 Y122.730 E38.55638
G1 X160.758 Y123.484 E38.62968
G1 X160.823 Y123.887 E38.66825
G1 X160.960 Y124.922 E38.76692
G1 X161.022 Y125.695 E38.84020
G1 X161.004 Y126.470 E38.91346
G1 X160.960 Y126.896 E38.95393
G1 X160.823 Y127.932 E39.05268
G1 X160.682 Y128.694 E39.12591
G1 X160.463 Y129.438 E39.19920
G1 X160.316 Y129.823 E39.23815
G1 X160.001 Y130.585 E39.31607
G1 X160.316 Y131.346 E39.39390
G1 X160.575 Y132.077 E39.46719
G1 X160.758 Y132.831 E39.54051
G1 X160.824 Y133.245 E39.58012
G1 X160.960 Y134.281 E39.67887
G1 X161.021 Y135.054 E39.75214
G1 X161.002 Y135.829 E39.82540
G1 X160.960 Y136.240 E39.86444
G1 X160.824 Y137.275 E39.96309
G1 X160.683 Y138.038 E40.03642
G1 X160.465 Y138.782 E40.10968
G1 X160.317 Y139.170 E40.14892
G1 X159.918 Y140.135 E40.24760
G1 X159.585 Y140.836 E40.32094
G1 X159.182 Y141.498 E40.39418
G1 X158.932 Y141.844 E40.43452
G1 X158.296 Y142.672 E40.53318
G1 X157.792 Y143.262 E40.60651
G1 X157.231 Y143.797 E40.67977
G1 X156.908 Y144.058 E40.71901
G1 X156.079 Y144.694 E40.81775
G1 X155.441 Y145.134 E40.89099
G1 X154.760 Y145.506 E40.96432
G1 X154.377 Y145.677 E41.00396
G1 X153.413 Y146.076 E41.10255
G1 X152.682 Y146.335 E41.17584
G1 X151.928 Y146.518 E41.24916
G1 X151.522 Y146.583 E41.28802
G1 X150.486 Y146.720 E41.38677
G1 X149.499 Y146.785 E41.48024
G1 X73.501 Y146.785 E48.66205
G1 X72.514 Y146.720 E48.75553
G1 X71.478 Y146.583 E48.85428
G1 X70.716 Y146.442 E48.92751
G1 X69.972 Y146.223 E49.00080
G1 X69.587 Y146.076 E49.03975
G1 X68.623 Y145.677 E49.13834
G1 X67.923 Y145.344 E49.21160
G1 X67.260 Y144.940 E49.28496
G1 X66.921 Y144.694 E49.32455
G1 X66.092 Y144.058 E49.42329
G1 X65.501 Y143.555 E49.49662
G1 X64.966 Y142.994 E49.56988
G1 X64.704 Y142.672 E49.60911
G1 X64.068 Y141.844 E49.70777
G1 X63.628 Y141.205 E49.78109
G1 X63.256 Y140.525 E49.85434
G1 X63.082 Y140.135 E49.89470
G1 X62.683 Y139.170 E49.99338
G1 X62.424 Y138.439 E50.06666
G1 X62.242 Y137.685 E50.13996
G1 X62.176 Y137.275 E50.17921
G1 X62.040 Y136.240 E50.27785
G1 X61.979 Y135.467 E50.35113
G1 X61.997 Y134.692 E50.42439
G1 X62.040 Y134.281 E50.46344
G1 X62.176 Y133.245 E50.56218
G1 X62.316 Y132.482 E50.63549
G1 X62.535 Y131.737 E50.70887
G1 X62.684 Y131.346 E50.74841
G1 X62.999 Y130.585 E50.82624
G1 X62.684 Y129.823 E50.90416
G1 X62.425 Y129.092 E50.97745
G1 X62.242 Y128.338 E51.05077
G1 X62.177 Y127.932 E51.08963
G1 X62.040 Y126.896 E51.18838
G1 X61.978 Y126.122 E51.26176
G1 X61.996 Y125.347 E51.33501
G1 X62.040 Y124.922 E51.37539
G1 X62.177 Y123.887 E51.47405
G1 X62.318 Y123.124 E51.54738
G1 X62.537 Y122.380 E51.62067
G1 X62.585 Y122.255 E51.63332
G1 X62.574 Y122.217 E51.63706
G1 X62.436 Y121.454 E51.71033
G1 X62.375 Y120.500 E51.80067
G1 X62.375 Y115.499 E52.27326
G1 X62.415 Y114.724 E52.34660
G1 X62.534 Y113.958 E52.41985
G1 X62.732 Y113.208 E52.49316
G1 X63.006 Y112.482 E52.56649
G1 X63.353 Y111.789 E52.63973
G1 X63.536 Y111.503 E52.67181
G1 X63.444 Y111.366 E52.68741
G1 X63.081 Y110.681 E52.76067
G1 X62.789 Y109.962 E52.83400
G1 X62.574 Y109.217 E52.90728
G1 X62.436 Y108.454 E52.98055
G1 X62.375 Y107.500 E53.07089
G1 X62.375 Y102.500 E53.54339
G1 X62.415 Y101.725 E53.61672
G1 X62.534 Y100.959 E53.68998
G1 X62.732 Y100.209 E53.76328
G1 X63.006 Y99.483 E53.83661
G1 X63.353 Y98.790 E53.90985
G1 X63.770 Y98.136 E53.98315
G1 X64.252 Y97.528 E54.05647
G1 X64.794 Y96.973 E54.12978
G1 X65.390 Y96.476 E54.20311
G1 X66.034 Y96.044 E54.27640
G0 F9000.00000 X66.368 Y96.255
G1 F1800.000 X67.046 Y95.917 E54.34799
G1 X67.755 Y95.653 E54.41948
G1 X68.489 Y95.465 E54.49109
G1 X69.238 Y95.356 E54.56261
G1 X69.900 Y95.325 E54.62524
G1 X153.100 Y95.325 E62.48764
G1 X153.856 Y95.365 E62.55918
G1 X154.604 Y95.484 E62.63076
G1 X155.335 Y95.682 E62.70232
G1 X156.042 Y95.956 E62.77398
G1 X156.715 Y96.302 E62.84549
G1 X157.348 Y96.718 E62.91707
G1 X157.934 Y97.198 E62.98865
G1 X158.466 Y97.737 E63.06022
G1 X158.938 Y98.329 E63.13177
G1 X159.345 Y98.968 E63.20336
G1 X159.683 Y99.646 E63.27495
G1 X159.947 Y100.355 E63.34645
G1 X160.135 Y101.089 E63.41805
G1 X160.244 Y101.838 E63.48958
G1 X160.275 Y102.500 E63.55220
G1 X160.275 Y107.496 E64.02433
G1 X160.235 Y108.252 E64.09587
G1 X160.116 Y109.000 E64.16744
G1 X159.918 Y109.731 E64.23901
G1 X159.644 Y110.438 E64.31067
G1 X159.298 Y111.111 E64.38218
G1 X159.046 Y111.494 E64.42550
G1 X159.345 Y111.963 E64.47806
G1 X159.683 Y112.641 E64.54965
G1 X159.947 Y113.350 E64.62115
G1 X160.135 Y114.084 E64.69275
G1 X160.244 Y114.833 E64.76428
G1 X160.275 Y115.495 E64.82690
G1 X160.275 Y120.500 E65.29988
G1 X160.235 Y121.256 E65.37142
G1 X160.116 Y122.004 E65.44299
G1 X160.043 Y122.272 E65.46924
G1 X160.246 Y122.847 E65.52687
G1 X160.476 Y123.932 E65.63168
G1 X160.613 Y124.967 E65.73034
G1 X160.673 Y125.722 E65.80191
G1 X160.613 Y126.850 E65.90866
G1 X160.476 Y127.886 E66.00741
G1 X160.337 Y128.630 E66.07894
G1 X159.993 Y129.689 E66.18416
G1 X159.622 Y130.585 E66.27580
G1 X159.993 Y131.480 E66.36736
G1 X160.245 Y132.194 E66.43891
G1 X160.477 Y133.290 E66.54478
G1 X160.613 Y134.326 E66.64352
G1 X160.672 Y135.081 E66.71508
G1 X160.613 Y136.195 E66.82051
G1 X160.477 Y137.230 E66.91915
G1 X160.339 Y137.974 E66.99066
G1 X159.994 Y139.037 E67.09627
G1 X159.595 Y140.002 E67.19495
G1 X159.269 Y140.685 E67.26647
G1 X158.654 Y141.631 E67.37310
G1 X158.018 Y142.459 E67.47176
G1 X157.526 Y143.034 E67.54328
G1 X156.695 Y143.781 E67.64887
G1 X155.866 Y144.417 E67.74761
G1 X155.242 Y144.845 E67.81912
G1 X154.243 Y145.354 E67.92507
G1 X153.279 Y145.753 E68.02366
G1 X152.565 Y146.005 E68.09522
G1 X151.476 Y146.236 E68.20042
G1 X150.440 Y146.373 E68.29917
G1 X149.499 Y146.435 E68.38829
G1 X73.501 Y146.435 E75.57010
G1 X72.560 Y146.373 E75.65922
G1 X71.524 Y146.236 E75.75797
G1 X70.780 Y146.097 E75.82949
G1 X69.721 Y145.753 E75.93472
G1 X68.757 Y145.354 E76.03331
G1 X68.073 Y145.027 E76.10495
G1 X67.134 Y144.417 E76.21077
G1 X66.305 Y143.781 E76.30951
G1 X65.729 Y143.289 E76.38110
G1 X64.982 Y142.459 E76.48662
G1 X64.346 Y141.631 E76.58528
G1 X63.917 Y141.007 E76.65684
G1 X63.405 Y140.002 E76.76343
G1 X63.006 Y139.037 E76.86211
G1 X62.754 Y138.322 E76.93375
G1 X62.523 Y137.230 E77.03923
G1 X62.387 Y136.195 E77.13788
G1 X62.328 Y135.440 E77.20944
G1 X62.387 Y134.326 E77.31486
G1 X62.523 Y133.290 E77.41361
G1 X62.661 Y132.545 E77.48521
G1 X63.007 Y131.480 E77.59103
G1 X63.378 Y130.585 E77.68258
G1 X63.007 Y129.689 E77.77423
G1 X62.755 Y128.975 E77.84578
G1 X62.524 Y127.886 E77.95098
G1 X62.387 Y126.850 E78.04973
G1 X62.327 Y126.095 E78.12130
G1 X62.387 Y124.967 E78.22805
G1 X62.524 Y123.932 E78.32671
G1 X62.663 Y123.188 E78.39824
G1 X62.959 Y122.277 E78.48876
G1 X62.865 Y121.911 E78.52447
G1 X62.756 Y121.162 E78.59599
G1 X62.725 Y120.500 E78.65862
G1 X62.725 Y115.499 E79.13121
G1 X62.765 Y114.743 E79.20276
G1 X62.884 Y113.995 E79.27433
G1 X63.082 Y113.264 E79.34590
G1 X63.356 Y112.557 E79.41755
G1 X63.702 Y111.884 E79.48906
G1 X63.954 Y111.501 E79.53239
G1 X63.655 Y111.032 E79.58495
G1 X63.317 Y110.354 E79.65654
G1 X63.053 Y109.645 E79.72804
G1 X62.865 Y108.911 E79.79964
G1 X62.756 Y108.162 E79.87116
G1 X62.725 Y107.500 E79.93379
G1 X62.725 Y102.500 E80.40629
G1 X62.765 Y101.744 E80.47783
G1 X62.884 Y100.996 E80.54941
G1 X63.082 Y100.265 E80.62098
G1 X63.356 Y99.558 E80.69263
G1 X63.702 Y98.885 E80.76414
G1 X64.118 Y98.252 E80.83572
G1 X64.598 Y97.666 E80.90731
G1 X65.137 Y97.134 E80.97887
G1 X65.729 Y96.662 E81.05042
G1 X66.368 Y96.255 E81.12202
G0 F9000.00000 X66.700 Y96.472
G1 F1800.000 X67.370 Y96.161 E81.19182
G1 X68.070 Y95.925 E81.26163
G1 X68.791 Y95.766 E81.33140
G1 X69.526 Y95.685 E81.40128
G1 X69.900 Y95.675 E81.43663
G1 X153.100 Y95.675 E89.29903
G1 X153.838 Y95.715 E89.36888
G1 X154.566 Y95.834 E89.43859
G1 X155.278 Y96.032 E89.50842
G1 X155.964 Y96.305 E89.57819
G1 X156.617 Y96.651 E89.64803
G1 X157.229 Y97.065 E89.71785
G1 X157.792 Y97.543 E89.78765
G1 X158.300 Y98.079 E89.85743
G1 X158.747 Y98.667 E89.92723
G1 X159.128 Y99.300 E89.99705
G1 X159.439 Y99.970 E90.06685
G1 X159.675 Y100.670 E90.13666
G1 X159.834 Y101.391 E90.20643
G1 X159.915 Y102.126 E90.27631
G1 X159.925 Y102.500 E90.31167
G1 X159.925 Y107.496 E90.78379
G1 X159.885 Y108.234 E90.85363
G1 X159.766 Y108.962 E90.92334
G1 X159.568 Y109.674 E90.99318
G1 X159.295 Y110.360 E91.06295
G1 X158.949 Y111.013 E91.13279
G1 X158.622 Y111.497 E91.18799
G1 X158.747 Y111.662 E91.20755
G1 X159.128 Y112.295 E91.27737
G1 X159.439 Y112.965 E91.34717
G1 X159.675 Y113.665 E91.41698
G1 X159.834 Y114.386 E91.48675
G1 X159.915 Y115.121 E91.55663
G1 X159.925 Y115.495 E91.59198
G1 X159.925 Y120.500 E92.06496
G1 X159.885 Y121.238 E92.13480
G1 X159.766 Y121.966 E92.20451
G1 X159.677 Y122.286 E92.23590
G1 X159.915 Y122.963 E92.30371
G1 X160.129 Y123.978 E92.40174
G1 X160.266 Y125.013 E92.50040
G1 X160.323 Y125.750 E92.57025
G1 X160.266 Y126.804 E92.67000
G1 X160.129 Y127.840 E92.76875
G1 X159.993 Y128.566 E92.83855
G1 X159.669 Y129.555 E92.93690
G1 X159.270 Y130.519 E93.03550
G1 X159.238 Y130.586 E93.04251
G1 X159.270 Y130.650 E93.04927
G1 X159.669 Y131.614 E93.14787
G1 X159.914 Y132.311 E93.21768
G1 X160.130 Y133.336 E93.31667
G1 X160.266 Y134.372 E93.41542
G1 X160.322 Y135.108 E93.48517
G1 X160.266 Y136.149 E93.58369
G1 X160.130 Y137.184 E93.68233
G1 X159.994 Y137.910 E93.75213
G1 X159.670 Y138.903 E93.85084
G1 X159.271 Y139.868 E93.94952
G1 X158.952 Y140.534 E94.01931
G1 X158.377 Y141.417 E94.11888
G1 X157.741 Y142.245 E94.21755
G1 X157.260 Y142.806 E94.28738
G1 X156.482 Y143.503 E94.38609
G1 X155.653 Y144.139 E94.48483
G1 X155.044 Y144.556 E94.55458
